Papirus/64x64/apps/feathernotes.svg

<svg xmlns="http://www.w3.org/2000/svg" width="64" height="64" version="1.1">
 <path style="opacity:0.2" d="M 4,45.86 V 58.2 C 4,59.7512 5.2488,61 6.8,61 H 57.2 C 58.7512,61 60,59.7512 60,58.2 V 45.86 c 0,1.5512 -1.2488,2.8 -2.8,2.8 H 6.8 C 5.2488,48.66 4,47.4112 4,45.86 Z"/>
 <path style="fill:#846d00" d="M 4,44.86 V 57.2 C 4,58.7512 5.2488,60 6.8,60 H 57.2 C 58.7512,60 60,58.7512 60,57.2 V 44.86 c 0,1.5512 -1.2488,2.8 -2.8,2.8 H 6.8 C 5.2488,47.66 4,46.4112 4,44.86 Z"/>
 <path style="opacity:0.1" d="M 6.8,5 C 5.2488,5 4,6.2265 4,7.75 v 38.5 C 4,47.7735 5.2488,49 6.8,49 H 57.2 C 58.7512,49 60,47.7735 60,46.25 V 7.75 C 60,6.2265 58.7512,5 57.2,5 Z"/>
 <path style="fill:#d8b900" d="M 6.8,4 C 5.2488,4 4,5.2265 4,6.75 v 38.5 C 4,46.7735 5.2488,48 6.8,48 H 57.2 C 58.7512,48 60,46.7735 60,45.25 V 6.75 C 60,5.2265 58.7512,4 57.2,4 Z"/>
 <path style="opacity:0.1" d="m 33.503906,11.001953 c -1.792285,-0.02066 -3.071108,0.107053 -3.105468,0.445313 -0.07039,0.692939 -0.44529,2.119313 -0.501954,3.634765 -0.281098,-1.094882 -0.450626,-2.223355 -0.498046,-3.388672 -2.583159,0.176574 -6.997432,2.629512 -7.013672,3.78711 -0.0095,0.669623 0.596075,6.145084 1.322265,8.833984 -1.34724,-2.64577 -1.927151,-5.344041 -2.541015,-8.041015 -0.777962,0.835958 -4.558708,0.801129 -1.933594,12.21289 -1.078815,-1.773244 -1.255999,-3.752111 -1.796875,-5.648437 -1.809407,3.003121 -3.00343,8.137884 -2.150391,14.513671 C 13.896441,40.215729 12.783815,43.316168 12,46.701172 L 12.550781,47 c 0,0 0.498723,-1.06727 0.939453,-1.388672 0.440731,-0.321396 1.84961,-0.919922 1.84961,-0.919922 0,0 0.301188,-2.677922 1.226562,-5.708984 5.057001,-0.667959 7.956312,-2.630665 9.701172,-5.109375 -3.096478,-4.06186 -2.279135,-3.425696 0.328125,-0.84375 1.226722,1.214804 3.17874,2.329069 4.521485,-1.453125 1.03081,-2.903552 2.240234,-3.708984 2.240234,-3.708984 -1.83848,-0.760036 -5.261913,-3.389571 0.261719,-1.074219 1.751224,-2.7105 4.193815,-4.545743 6.435547,-6.634766 -5.011995,-0.0069 -3.588054,-2.17026 0.820312,-0.623047 2.098112,-3.977433 7.192368,-3.915138 12.9375,-2.974609 -4.21835,-2.154576 -8.916308,-4.968711 -10.277344,-3.189453 l -0.197265,-1.330078 c -2.435878,-0.560343 -6.846843,-1.004622 -9.833985,-1.039063 z"/>
 <path style="fill:#ffffff" d="m 16.047078,38.06096 c 5.394288,-0.595318 8.415186,-2.622088 10.22132,-5.187842 -3.096478,-4.06186 -2.280606,-3.4264 0.326654,-0.844454 1.226722,1.214804 3.17863,2.329134 4.521374,-1.45306 1.03081,-2.903552 2.24061,-3.708542 2.24061,-3.708542 -1.83848,-0.760036 -5.261812,-3.390292 0.26182,-1.07494 1.751224,-2.7105 4.19444,-4.544226 6.436172,-6.633249 -5.011994,-0.0069 -3.588872,-2.171331 0.819494,-0.624118 2.098112,-3.977433 7.19275,-3.91409 12.937882,-2.973561 -4.21835,-2.154576 -8.916002,-4.969053 -10.277038,-3.189795 L 43.337644,11.041545 C 39.44024,10.144996 30.489708,9.544715 30.39808,10.44674 30.32769,11.139679 29.952422,12.56649 29.895758,14.081942 29.61466,12.98706 29.44645,11.858147 29.39903,10.69283 c -2.583158,0.176574 -6.998054,2.629073 -7.014294,3.786671 -0.0095,0.669623 0.595142,6.146853 1.321332,8.835753 -1.34724,-2.64577 -1.925856,-5.345207 -2.53972,-8.042182 -0.777962,0.835958 -4.558102,0.801549 -1.932988,12.21331 -1.078815,-1.773244 -1.256946,-3.752564 -1.797822,-5.64889 -1.955263,3.245202 -3.197203,8.976618 -1.907868,16.076782"/>
 <path style="fill:#434343" d="M 35.012066,15.487109 C 23.883818,22.641236 15.215067,31.81676 12,45.701434 L 12.551677,46 c 0,0 0.497369,-1.068062 0.938099,-1.389464 0.440731,-0.321396 1.850736,-0.918572 1.850736,-0.918572 0,0 0.5536,-5.07108 2.553481,-9.163496 1.999888,-4.092406 5.076593,-7.373456 5.738887,-8.10138 0.865124,-0.950862 4.874336,-5.698286 11.55067,-10.791458 0.07924,-0.08153 0.04428,-0.246886 -0.17164,-0.148498 z"/>
 <path style="opacity:0.2;fill:#ffffff" d="M 6.8007812 4 C 5.2495812 4 4 5.2265 4 6.75 L 4 7.75 C 4 6.2265 5.2495812 5 6.8007812 5 L 57.199219 5 C 58.750419 5 60 6.2265 60 7.75 L 60 6.75 C 60 5.2265 58.750419 4 57.199219 4 L 6.8007812 4 z"/>
</svg>

<svg xmlns="http://www.w3.org/2000/svg" width="64" height="64" version="1.1">
 <path style="opacity:0.2" d="M 4,46.199 V 58.199 C 4,59.75 5.2496,61 6.8008,61 H 57.199 C 58.75,61 60,59.75 60,58.199 V 46.199 C 60,47.75 58.75,49 57.199,49 H 6.8008 C 5.2496,49 4,47.75 4,46.199 Z"/>
 <path style="fill:#846d00" d="M 4 45.199 L 4 57.199 C 4 58.75 5.2496 60 6.8008 60 L 57.199 60 C 58.75 60 60 58.75 60 57.199 L 60 45.199 C 60 46.75 58.75 48 57.199 48 L 6.8008 48 C 5.2496 48 4 46.75 4 45.199 z"/>
 <rect style="opacity:0.1" width="56" height="44" x="4" y="5" rx="2.8" ry="2.8"/>
 <rect style="fill:#d8b900" width="56" height="44" x="4" y="4" rx="2.8" ry="2.8"/>
 <path style="opacity:0.2;fill:#ffffff" d="M 6.8008 4 C 5.2496 4 4 5.2496 4 6.8008 L 4 7.8008 C 4 6.2496 5.2496 5 6.8008 5 L 57.199 5 C 58.75 5 60 6.2496 60 7.8008 L 60 6.8008 C 60 5.2496 58.75 4 57.199 4 L 6.8008 4 z"/>
 <path style="opacity:0.1" d="M 33.504,11.002 C 31.712,10.981 30.433,11.109 30.398,11.447 30.328,12.14 29.953,13.567 29.896,15.082 29.615,13.987 29.446,12.859 29.398,11.693 26.815,11.87 22.401,14.323 22.385,15.48 22.375,16.15 22.981,21.626 23.707,24.314 22.36,21.669 21.78,18.97 21.166,16.273 20.388,17.109 16.607,17.075 19.232,28.486 18.154,26.713 17.976,24.734 17.436,22.838 15.626,25.841 14.432,30.976 15.285,37.352 13.896,40.216 12.784,43.316 12,46.701 L 12.551,47 C 12.551,47 13.05,45.933 13.49,45.611 13.931,45.29 15.34,44.691 15.34,44.691 15.34,44.691 15.641,42.013 16.566,38.982 21.623,38.314 24.523,36.352 26.268,33.873 23.171,29.811 23.988,30.447 26.596,33.029 27.822,34.244 29.774,35.358 31.117,31.576 32.148,28.673 33.357,27.867 33.357,27.867 31.519,27.107 28.096,24.478 33.619,26.793 35.37,24.082 37.813,22.247 40.055,20.158 35.043,20.151 36.467,17.988 40.875,19.535 42.973,15.558 48.067,15.62 53.813,16.561 49.594,14.406 44.896,11.592 43.535,13.371 L 43.338,12.041 C 40.902,11.481 36.491,11.036 33.504,11.002 Z"/>
 <path style="fill:#ffffff" d="M 16.047,38.061 C 21.441,37.466 24.462,35.439 26.268,32.873 23.172,28.811 23.988,29.447 26.595,32.029 27.822,33.243 29.774,34.358 31.116,30.576 32.147,27.672 33.357,26.867 33.357,26.867 31.519,26.107 28.095,23.477 33.619,25.792 35.37,23.082 37.813,21.248 40.055,19.159 35.043,19.152 36.466,16.988 40.875,18.535 42.973,14.557 48.067,14.621 53.812,15.561 49.594,13.407 44.896,10.592 43.535,12.371 L 43.338,11.042 C 39.44,10.145 30.49,9.5446 30.398,10.447 30.328,11.14 29.952,12.566 29.896,14.082 29.615,12.987 29.446,11.858 29.399,10.693 26.816,10.869 22.401,13.322 22.385,14.48 22.375,15.149 22.98,20.626 23.706,23.315 22.359,20.669 21.78,17.97 21.166,15.273 20.388,16.109 16.608,16.075 19.233,27.486 18.155,25.713 17.976,23.734 17.436,21.837 15.48,25.083 14.238,30.814 15.528,37.914"/>
 <path style="fill:#434343" d="M 35.012,15.487 C 23.884,22.641 15.215,31.817 12,45.701 L 12.552,46 C 12.552,46 13.049,44.932 13.49,44.611 13.931,44.289 15.341,43.692 15.341,43.692 15.341,43.692 15.894,38.621 17.894,34.528 19.894,30.436 22.971,27.155 23.633,26.427 24.498,25.476 28.507,20.729 35.184,15.636 35.263,15.554 35.228,15.389 35.012,15.487 Z"/>
</svg>
